docs/images/icons/cursor_seo.svg

<svg width="71" height="39" fill="none" xmlns="http://www.w3.org/2000/svg"><rect rx="13" width="46" height="26" transform="translate(24.5 12.5)" fill="#7053FF"/><path d="M36.86 28.9c-.43-.3-.68-.69-.73-1.18h-1.51q.03.73.35 1.29.27.48.74.84 1.02.79 2.67.79 1.75 0 2.78-.81.44-.35.69-.8.33-.61.33-1.4 0-.81-.37-1.37-.13-.19-.3-.35-.67-.65-2.19-1.01l-1.09-.27c-.64-.16-1.09-.34-1.37-.56-.28-.23-.42-.51-.42-.86q0-.29.11-.53.13-.3.45-.53.56-.41 1.44-.41.9 0 1.46.41.26.2.41.45.19.31.23.71h1.49c-.03-.85-.37-1.54-1.02-2.07l-.16-.12q-.95-.68-2.39-.68-1.5 0-2.47.72-.06.04-.11.08-.52.41-.77.95-.23.51-.23 1.12 0 .63.25 1.12.57 1.1 2.4 1.54l1.28.31c.63.16 1.1.36 1.38.6.29.24.43.56.43.94q0 .24-.08.46-.14.36-.52.63-.61.43-1.53.43-.98 0-1.63-.44Zm21.35-7.78q-1.06-.68-2.55-.68-1.51 0-2.58.69-.44.29-.8.69-.1.11-.19.23-1.05 1.33-1.05 3.49t1.05 3.5q.09.12.19.23.36.39.79.67 1.07.7 2.59.7 1.52 0 2.59-.7.43-.28.78-.67.11-.11.2-.23 1.05-1.34 1.05-3.5t-1.05-3.49q-.09-.12-.2-.23-.37-.41-.82-.7Zm-14.65 9.35h6.26v-1.32h-4.73v-3.07h4.48v-1.27h-4.48v-2.88h4.73v-1.32h-6.26v9.86Zm9.87-7.67c.55-.67 1.29-1.01 2.23-1.01.93 0 1.67.34 2.23 1.01q.82 1.01.82 2.74 0 1.73-.82 2.74c-.56.67-1.3 1.01-2.23 1.01q-.85 0-1.49-.37-.42-.24-.74-.64c-.55-.68-.83-1.59-.83-2.74q0-1.73.83-2.74Z" fill="#FFF" fill-rule="evenodd"/><rect rx="13" width="46" height="26" transform="translate(24.5 12.5)" stroke="#917AFF"/><path d="M0 0h24v24H0z"/><path d="M2.89 2.29 21.7 8.56c.1.04.18.1.24.18.06.08.1.18.1.28.01.11-.02.21-.08.29-.06.09-.14.15-.23.19L13 12.99l-4.43 8.86c-.05.09-.12.16-.2.21-.09.05-.19.07-.29.06a.57.57 0 0 1-.28-.11.598.598 0 0 1-.16-.25L2.25 2.91a.615.615 0 0 1 0-.27c.03-.09.07-.17.14-.23.07-.07.15-.11.24-.13.09-.02.18-.01.26.01Z" fill="#7053FF"/><path d="m13 12.99 8.73-3.49c.09-.04.17-.1.23-.19.06-.08.09-.18.08-.29 0-.1-.04-.2-.1-.28a.546.546 0 0 0-.24-.18L2.89 2.29a.566.566 0 0 0-.26-.01c-.09.02-.17.06-.24.13-.07.06-.11.14-.14.23-.02.09-.02.18 0 .27l5.39 18.85c.03.1.09.18.16.25.08.06.18.1.28.11.1.01.2-.01.29-.06.08-.05.15-.12.2-.21L13 12.99Zm7.09-3.91L3.48 3.54l4.77 16.71 4.02-8.04 7.82-3.13Z" fill="#917AFF" fill-rule="evenodd"/></svg>

<svg width="71.000000" height="39.000000" viewBox="0 0 71 39" fill="none" xmlns="http://www.w3.org/2000/svg" xmlns:xlink="http://www.w3.org/1999/xlink">	
	<defs/>
	<rect id="Button" rx="13.000000" width="46.000000" height="26.000000" transform="translate(24.500000 12.500000)" fill="#7053FF" fill-opacity="1.000000"/>
	<path id="You" d="M36.86 28.9C36.43 28.6 36.18 28.21 36.13 27.72L34.62 27.72Q34.65 28.45 34.97 29.01Q35.24 29.49 35.71 29.85Q36.73 30.64 38.38 30.64Q40.13 30.64 41.16 29.83Q41.6 29.48 41.85 29.03Q42.18 28.42 42.18 27.63Q42.18 26.82 41.81 26.26Q41.68 26.07 41.51 25.91Q40.84 25.26 39.32 24.9L38.23 24.63C37.59 24.47 37.14 24.29 36.86 24.07C36.58 23.84 36.44 23.56 36.44 23.21Q36.44 22.92 36.55 22.68Q36.68 22.38 37 22.15Q37.56 21.74 38.44 21.74Q39.34 21.74 39.9 22.15Q40.16 22.35 40.31 22.6Q40.5 22.91 40.54 23.31L42.03 23.31C42 22.46 41.66 21.77 41.01 21.24Q40.93 21.18 40.85 21.12Q39.9 20.44 38.46 20.44Q36.96 20.44 35.99 21.16Q35.93 21.2 35.88 21.24Q35.36 21.65 35.11 22.19Q34.88 22.7 34.88 23.31Q34.88 23.94 35.13 24.43Q35.7 25.53 37.53 25.97L38.81 26.28C39.44 26.44 39.91 26.64 40.19 26.88C40.48 27.12 40.62 27.44 40.62 27.82Q40.62 28.06 40.54 28.28Q40.4 28.64 40.02 28.91Q39.41 29.34 38.49 29.34Q37.51 29.34 36.86 28.9ZM58.21 21.12Q57.15 20.44 55.66 20.44Q54.15 20.44 53.08 21.13Q52.64 21.42 52.28 21.82Q52.18 21.93 52.09 22.05Q51.04 23.38 51.04 25.54Q51.04 27.7 52.09 29.04Q52.18 29.16 52.28 29.27Q52.64 29.66 53.07 29.94Q54.14 30.64 55.66 30.64Q57.18 30.64 58.25 29.94Q58.68 29.66 59.03 29.27Q59.14 29.16 59.23 29.04Q60.28 27.7 60.28 25.54Q60.28 23.38 59.23 22.05Q59.14 21.93 59.03 21.82Q58.66 21.41 58.21 21.12ZM43.56 30.47L49.82 30.47L49.82 29.15L45.09 29.15L45.09 26.08L49.57 26.08L49.57 24.81L45.09 24.81L45.09 21.93L49.82 21.93L49.82 20.61L43.56 20.61L43.56 30.47ZM53.43 22.8C53.98 22.13 54.72 21.79 55.66 21.79C56.59 21.79 57.33 22.13 57.89 22.8Q58.71 23.81 58.71 25.54Q58.71 27.27 57.89 28.28C57.33 28.95 56.59 29.29 55.66 29.29Q54.81 29.29 54.17 28.92Q53.75 28.68 53.43 28.28C52.88 27.6 52.6 26.69 52.6 25.54Q52.6 23.81 53.43 22.8Z" fill="#FFFFFF" fill-opacity="1.000000" fill-rule="evenodd"/>
	<rect id="Button" rx="13.000000" width="46.000000" height="26.000000" transform="translate(24.500000 12.500000)" stroke="#917AFF" stroke-opacity="1.000000" stroke-width="1.000000"/>
	<rect id="navigation-fill" width="24.000000" height="24.000000" fill="#FFFFFF" fill-opacity="0"/>
	<path id="Vector" d="M2.89 2.29L21.7 8.56C21.8 8.6 21.88 8.66 21.94 8.74C22 8.82 22.04 8.92 22.04 9.02C22.05 9.13 22.02 9.23 21.96 9.31C21.9 9.4 21.82 9.46 21.73 9.5L13 12.99L8.57 21.85C8.52 21.94 8.45 22.01 8.37 22.06C8.28 22.11 8.18 22.13 8.08 22.12C7.98 22.11 7.88 22.07 7.8 22.01C7.73 21.94 7.67 21.86 7.64 21.76L2.25 2.91C2.23 2.82 2.23 2.73 2.25 2.64C2.28 2.55 2.32 2.47 2.39 2.41C2.46 2.34 2.54 2.3 2.63 2.28C2.72 2.26 2.81 2.27 2.89 2.29Z" fill="#7053FF" fill-opacity="1.000000" fill-rule="nonzero"/>
	<path id="Vector" d="M13 12.99L21.73 9.5C21.82 9.46 21.9 9.4 21.96 9.31C22.02 9.23 22.05 9.13 22.04 9.02C22.04 8.92 22 8.82 21.94 8.74C21.88 8.66 21.8 8.6 21.7 8.56L2.89 2.29C2.81 2.27 2.72 2.26 2.63 2.28C2.54 2.3 2.46 2.34 2.39 2.41C2.32 2.47 2.28 2.55 2.25 2.64C2.23 2.73 2.23 2.82 2.25 2.91L7.64 21.76C7.67 21.86 7.73 21.94 7.8 22.01C7.88 22.07 7.98 22.11 8.08 22.12C8.18 22.13 8.28 22.11 8.37 22.06C8.45 22.01 8.52 21.94 8.57 21.85L13 12.99ZM20.09 9.08L3.48 3.54L8.25 20.25L12.27 12.21L20.09 9.08Z" fill="#917AFF" fill-opacity="1.000000" fill-rule="evenodd"/>
</svg>
